X:1
T:After the Midnight
T:Samuel William Beazley
T:After the Midnight
T:Public Domain
T:Public Domain
T:Public Domain
C:Samuel William Beazley
Z:Public Domain
%%score ( 1 2 ) 3
L:1/8
M:9/8
K:Ab
V:1 treble 
V:2 treble 
V:3 bass 
V:1
 [Ec][Fd][Ec] | [Ec]3 [DB]3 [DB][Ec][DB] | [DB]3 [CA]3 [CA][DG][EA] | [Fd]3 [DF]3 [FA][EG][DF] | %4
w: 1.~Af- ter the|mid- night, morn- ing will|greet us; Af- ter the|sad- ness, joy will ap-|
w: 2.~Af- ter the|bat- tle, peace will be|giv- en; Af- ter the|weep- ing, song there will|
w: 3.~Sha- dows and|sun- shine all thro’ the|sto- ry, Tear- drops and|plea- sure, day af- ter|
 [CE]6 [Ec][Fd][Ec] | [Ec]3 [DB]3 [DB][Ec][EB] | [DB]3 [CA]3 [=B,A][B,G][B,F] | %7
w: pear; Af- ter the|tem- pest, sun- light will|meet us; Af- ter the|
w: be; Af- ter the|jour- ney there will be|heav- en, Bur- dens will|
w: day; But when we|reach the king- dom of|glo- ry, Tri- als of|
 [CE]3 [Ec]3 [Fd][Ec][DB] | [CA]6 ||"^Refrain" [FA][=EG][FA] | [Fd]3 [DF]3 [FA][EG][DF] | %11
w: jeer- ing, praise we shall|hear.|Af- ter the|sha- dows, there will be|
w: fall and we shall be|free.|||
w: earth will van- ish a-|way.|||
 [CE]3 [Ec]3 [Ec][Fd][Ec] | [=DB]3 [DF]3 [DF][DG][DA] | (E2 =D _D3) E[=DF][_DG] | %14
w: sun- shine; Af- ter the|frown, the soul- cheer- ing|smile; * * Cling to the|
w: |||
w: |||
 [CA]3 [Ec]3 A[GB][_Gc] | [Fd]3 [Af]3 [FA][EG][DF] | [CE]3 [Ec]2 [Fd] [Ec] [DB]2 | [CA]6 |] %18
w: love Him for- ev- er;|will be well in a|lit- tle while. * *||
w: ||||
w: ||||
V:2
 x3 | x9 | x9 | x9 | x9 | x9 | x9 | x9 | x6 || x3 | x9 | x9 | x9 | B6 E x2 | x6 A x2 | x9 | x9 | %17
w: |||||||||||||Sav- ior,|All|||
 x6 |] %18
w: |
V:3
 [A,,A,][A,,A,][A,,A,] | [E,A,]3 [E,G,]3 [E,G,][E,G,][E,G,] | %2
w: ~ ~ ~|~ ~ ~ ~ ~|
 [A,,E,]3 [A,,E,]3 [A,,E,][B,,E,][C,A,] | [D,A,]3 [D,A,]3 [D,A,][D,A,][D,A,] | %4
w: ~ ~ ~ ~ ~|~ ~ ~ ~ ~|
 [A,,A,]6 [A,,A,][A,,A,][A,,A,] | [E,A,]3 [E,G,]3 [E,G,][E,G,][E,G,] | %6
w: ~ ~ ~ ~|~ ~ ~ ~ ~|
 [=E,G,]3 [F,A,]3 [=D,F,][D,G,][D,A,] | [E,A,]3 [E,A,]3 [E,G,][E,A,][E,G,] | [A,,E,A,]6 || z3 | %10
w: ~ ~ ~ ~ ~|~ ~ ~ ~ ~|~||
 [D,A,][D,A,][D,A,] [D,A,]2 [D,A,] z3 | [A,,A,][A,,A,][A,,A,] [A,,A,]2 [A,,A,] z3 | %12
w: Af- ter the sha- dows,|there will be sun- shine;|
 [B,,F,][B,,F,][B,,F,] [B,,B,]2 [B,,B,] [B,,A,][B,,G,][B,,F,] | [E,G,][E,G,][F,A,] [E,G,]3 z3 | %14
w: Af- ter the frown, ~ ~ ~ ~|soul- cheer- ing smile;|
 [A,,E,][A,,E,][A,,E,] [A,,A,]2 [A,,A,] z3 | [D,A,][D,A,][D,A,] [D,D]2 [D,D] [D,D][D,A,][D,A,] | %16
w: Cling to the Sav- ior,|love Him for- ev- er; * * *|
 [E,A,]3 [E,A,]2 [E,G,] [E,A,] [E,G,]2 | [A,,E,A,]6 |] %18
w: ||

